assets/images/results/10.svg

<svg width="705" height="30" viewBox="0 0 705 30" fill="none" xmlns="http://www.w3.org/2000/svg">
<g opacity="0.1">
<rect width="47" height="30" rx="8" fill="white"/>
</g>
<rect x="55" width="47" height="30" rx="8" fill="#7D9D3B"/>
<path d="M78.808 20.098C78.276 20.098 77.7907 20.0327 77.352 19.902C76.9227 19.762 76.5447 19.566 76.218 19.314C75.9007 19.0527 75.6487 18.7447 75.462 18.39L76.47 17.116C76.5633 17.3213 76.7127 17.522 76.918 17.718C77.1233 17.914 77.38 18.0727 77.688 18.194C77.996 18.3153 78.346 18.376 78.738 18.376C79.1207 18.376 79.452 18.32 79.732 18.208C80.012 18.096 80.2267 17.942 80.376 17.746C80.5347 17.5407 80.614 17.2933 80.614 17.004C80.614 16.696 80.516 16.4347 80.32 16.22C80.1333 16.0053 79.8533 15.842 79.48 15.73C79.1067 15.618 78.6493 15.562 78.108 15.562H77.646V14.162H78.136C78.808 14.162 79.3447 14.0453 79.746 13.812C80.1567 13.5787 80.362 13.2473 80.362 12.818C80.362 12.5567 80.292 12.3327 80.152 12.146C80.012 11.95 79.8253 11.8053 79.592 11.712C79.3587 11.6093 79.102 11.558 78.822 11.558C78.3553 11.558 77.94 11.67 77.576 11.894C77.2213 12.1087 76.9507 12.3887 76.764 12.734L75.546 11.376C75.7513 11.0773 76.0313 10.8253 76.386 10.62C76.7407 10.4053 77.1373 10.2373 77.576 10.116C78.024 9.99467 78.486 9.934 78.962 9.934C79.6247 9.934 80.2127 10.0507 80.726 10.284C81.2393 10.508 81.6407 10.816 81.93 11.208C82.2193 11.6 82.364 12.048 82.364 12.552C82.364 12.9253 82.2847 13.266 82.126 13.574C81.9767 13.882 81.762 14.1387 81.482 14.344C81.202 14.5493 80.8707 14.6987 80.488 14.792C80.8987 14.8573 81.258 15.0113 81.566 15.254C81.8833 15.4873 82.126 15.786 82.294 16.15C82.4713 16.5047 82.56 16.892 82.56 17.312C82.56 17.9 82.392 18.3993 82.056 18.81C81.7293 19.2207 81.2813 19.538 80.712 19.762C80.152 19.986 79.5173 20.098 78.808 20.098Z" fill="white"/>
<path d="M110 8C110 3.58172 113.582 0 118 0H148.846C153.264 0 156.846 3.58172 156.846 8V22C156.846 26.4183 153.264 30 148.846 30H118C113.582 30 110 26.4183 110 22V8Z" fill="white" fill-opacity="0.1"/>
<path d="M110 8C110 3.58172 113.582 0 118 0H148.846C153.264 0 156.846 3.58172 156.846 8V22C156.846 26.4183 153.264 30 148.846 30H118C113.582 30 110 26.4183 110 22V8Z" fill="url(#paint0_linear_13_334)"/>
<path d="M164.846 8C164.846 3.58172 168.428 0 172.846 0H203.692C208.111 0 211.692 3.58172 211.692 8V22C211.692 26.4183 208.111 30 203.692 30H172.846C168.428 30 164.846 26.4183 164.846 22V8Z" fill="white" fill-opacity="0.1"/>
<path d="M164.846 8C164.846 3.58172 168.428 0 172.846 0H203.692C208.111 0 211.692 3.58172 211.692 8V22C211.692 26.4183 208.111 30 203.692 30H172.846C168.428 30 164.846 26.4183 164.846 22V8Z" fill="url(#paint1_linear_13_334)"/>
<rect x="219.692" width="47" height="30" rx="8" fill="#38BCE2"/>
<path d="M241.244 18.306V20H235.616V18.306H237.548V11.838C237.474 11.95 237.348 12.076 237.17 12.216C237.002 12.3467 236.806 12.4773 236.582 12.608C236.368 12.7293 236.144 12.832 235.91 12.916C235.686 13 235.481 13.042 235.294 13.042V11.306C235.546 11.306 235.803 11.2407 236.064 11.11C236.326 10.9793 236.568 10.83 236.792 10.662C237.016 10.494 237.194 10.34 237.324 10.2C237.464 10.0507 237.539 9.97133 237.548 9.962H239.466V18.306H241.244ZM242.13 20C242.13 19.4307 242.167 18.9313 242.242 18.502C242.316 18.0633 242.433 17.676 242.592 17.34C242.76 16.9947 242.974 16.6913 243.236 16.43C243.497 16.1687 243.819 15.9213 244.202 15.688C244.528 15.5013 244.864 15.3193 245.21 15.142C245.564 14.9647 245.891 14.778 246.19 14.582C246.498 14.386 246.745 14.162 246.932 13.91C247.128 13.658 247.226 13.35 247.226 12.986C247.226 12.706 247.165 12.468 247.044 12.272C246.932 12.0667 246.764 11.908 246.54 11.796C246.325 11.684 246.064 11.628 245.756 11.628C245.401 11.628 245.07 11.6933 244.762 11.824C244.463 11.9453 244.192 12.0993 243.95 12.286C243.716 12.4633 243.516 12.6407 243.348 12.818L242.172 11.586C242.302 11.4367 242.48 11.2687 242.704 11.082C242.937 10.8953 243.212 10.7133 243.53 10.536C243.856 10.3587 244.225 10.214 244.636 10.102C245.046 9.99 245.499 9.934 245.994 9.934C246.722 9.934 247.333 10.0647 247.828 10.326C248.322 10.578 248.696 10.928 248.948 11.376C249.209 11.8147 249.34 12.3233 249.34 12.902C249.34 13.322 249.27 13.6953 249.13 14.022C248.999 14.3393 248.817 14.6193 248.584 14.862C248.35 15.1047 248.089 15.324 247.8 15.52C247.51 15.7067 247.212 15.8887 246.904 16.066C246.418 16.3273 246.026 16.556 245.728 16.752C245.429 16.948 245.191 17.13 245.014 17.298C244.846 17.466 244.715 17.634 244.622 17.802C244.538 17.9607 244.463 18.1287 244.398 18.306H249.354V20H242.13Z" fill="white"/>
<g opacity="0.1">
<rect x="274.692" width="47" height="30" rx="8" fill="white"/>
</g>
<g opacity="0.1">
<rect x="329.692" width="47" height="30" rx="8" fill="white"/>
</g>
<g opacity="0.1">
<rect x="384.692" width="47" height="30" rx="8" fill="white"/>
</g>
<g opacity="0.1">
<rect x="439.692" width="47" height="30" rx="8" fill="white"/>
</g>
<g opacity="0.1">
<rect x="494.692" width="47" height="30" rx="8" fill="white"/>
</g>
<g opacity="0.1">
<rect x="549.692" width="46" height="30" rx="8" fill="white"/>
</g>
<g opacity="0.1">
<rect x="603.692" width="47" height="30" rx="8" fill="white"/>
</g>
<g opacity="0.1">
<rect x="658.692" width="46" height="30" rx="8" fill="white"/>
</g>
<defs>
<linearGradient id="paint0_linear_13_334" x1="110" y1="15" x2="211.692" y2="15" gradientUnits="userSpaceOnUse">
<stop stop-color="#7D9D3B"/>
<stop offset="1" stop-color="#38BCE2"/>
</linearGradient>
<linearGradient id="paint1_linear_13_334" x1="110" y1="15" x2="211.692" y2="15" gradientUnits="userSpaceOnUse">
<stop stop-color="#7D9D3B"/>
<stop offset="1" stop-color="#38BCE2"/>
</linearGradient>
</defs>
</svg>

<svg xmlns="http://www.w3.org/2000/svg" width="705" height="30" fill="none" viewBox="0 0 705 30"><rect width="47" height="30" fill="#fff" opacity="0.1" rx="8"/><rect width="47" height="30" x="55" fill="#7D9D3B" rx="8"/><path fill="#fff" d="M78.808 20.098a5 5 0 0 1-1.456-.196 3.7 3.7 0 0 1-1.134-.588 3 3 0 0 1-.756-.924l1.008-1.274q.14.308.448.602t.77.476 1.05.182q.574 0 .994-.168t.644-.462q.238-.308.238-.742 0-.462-.294-.784-.28-.322-.84-.49t-1.372-.168h-.462v-1.4h.49q1.008 0 1.61-.35.615-.35.616-.994 0-.391-.21-.672a1.24 1.24 0 0 0-.56-.434 1.9 1.9 0 0 0-.77-.154q-.7 0-1.246.336a2.2 2.2 0 0 0-.812.84l-1.218-1.358q.307-.448.84-.756a4.7 4.7 0 0 1 1.19-.504q.672-.182 1.386-.182.994 0 1.764.35.77.336 1.204.924t.434 1.344q0 .56-.238 1.022-.225.462-.644.77a2.8 2.8 0 0 1-.994.448q.615.098 1.078.462.476.35.728.896.266.532.266 1.162 0 .882-.504 1.498-.49.616-1.344.952-.84.336-1.904.336"/><path fill="#fff" fill-opacity="0.1" d="M110 8a8 8 0 0 1 8-8h30.846a8 8 0 0 1 8 8v14a8 8 0 0 1-8 8H118a8 8 0 0 1-8-8z"/><path fill="url(#a)" d="M110 8a8 8 0 0 1 8-8h30.846a8 8 0 0 1 8 8v14a8 8 0 0 1-8 8H118a8 8 0 0 1-8-8z"/><path fill="#fff" fill-opacity="0.1" d="M164.846 8a8 8 0 0 1 8-8h30.846a8 8 0 0 1 8 8v14a8 8 0 0 1-8 8h-30.846a8 8 0 0 1-8-8z"/><path fill="url(#b)" d="M164.846 8a8 8 0 0 1 8-8h30.846a8 8 0 0 1 8 8v14a8 8 0 0 1-8 8h-30.846a8 8 0 0 1-8-8z"/><rect width="47" height="30" x="219.692" fill="#38BCE2" rx="8"/><path fill="#fff" d="M241.244 18.306V20h-5.628v-1.694h1.932v-6.468q-.111.168-.378.378-.252.195-.588.392a4.3 4.3 0 0 1-.672.308 1.8 1.8 0 0 1-.616.126v-1.736q.378 0 .77-.196.392-.195.728-.448.336-.252.532-.462l.224-.238h1.918v8.344zM242.13 20q0-.855.112-1.498.111-.658.35-1.162a3.3 3.3 0 0 1 .644-.91 5 5 0 0 1 .966-.742q.489-.28 1.008-.546.531-.266.98-.56a2.7 2.7 0 0 0 .742-.672q.294-.378.294-.924 0-.42-.182-.714a1.13 1.13 0 0 0-.504-.476 1.7 1.7 0 0 0-.784-.168q-.532 0-.994.196-.449.181-.812.462a5 5 0 0 0-.602.532l-1.176-1.232q.195-.224.532-.504.35-.28.826-.546a5.15 5.15 0 0 1 2.464-.602q1.092 0 1.834.392.742.378 1.12 1.05.392.658.392 1.526 0 .63-.21 1.12a2.7 2.7 0 0 1-.546.84 5 5 0 0 1-.784.658 21 21 0 0 1-.896.546q-.729.392-1.176.686a5 5 0 0 0-.714.546 2.3 2.3 0 0 0-.392.504 4 4 0 0 0-.224.504h4.956V20z"/><rect width="47" height="30" x="274.692" fill="#fff" opacity="0.1" rx="8"/><rect width="47" height="30" x="329.692" fill="#fff" opacity="0.1" rx="8"/><rect width="47" height="30" x="384.692" fill="#fff" opacity="0.1" rx="8"/><rect width="47" height="30" x="439.692" fill="#fff" opacity="0.1" rx="8"/><rect width="47" height="30" x="494.692" fill="#fff" opacity="0.1" rx="8"/><rect width="46" height="30" x="549.692" fill="#fff" opacity="0.1" rx="8"/><rect width="47" height="30" x="603.692" fill="#fff" opacity="0.1" rx="8"/><rect width="46" height="30" x="658.692" fill="#fff" opacity="0.1" rx="8"/><defs><linearGradient id="a" x1="110" x2="211.692" y1="15" y2="15" gradientUnits="userSpaceOnUse"><stop stop-color="#7D9D3B"/><stop offset="1" stop-color="#38BCE2"/></linearGradient><linearGradient id="b" x1="110" x2="211.692" y1="15" y2="15" gradientUnits="userSpaceOnUse"><stop stop-color="#7D9D3B"/><stop offset="1" stop-color="#38BCE2"/></linearGradient></defs></svg>
